src/assets/analog.svg

<svg xmlns="http://www.w3.org/2000/svg" xmlns:xlink="http://www.w3.org/1999/xlink" width="564" zoomAndPan="magnify" viewBox="0 0 422.88 343.499995" height="458" preserveAspectRatio="xMidYMid meet" version="1.0"><defs><clipPath id="id1"><path d="M 127.296875 75.375 L 347.570312 75.375 L 347.570312 267.527344 L 127.296875 267.527344 Z M 127.296875 75.375 " clip-rule="nonzero"/></clipPath><clipPath id="id2"><path d="M 75.871094 104 L 263.335938 104 L 263.335938 268.03125 L 75.871094 268.03125 Z M 75.871094 104 " clip-rule="nonzero"/></clipPath><clipPath id="id3"><path d="M 105 169.023438 L 315 169.023438 L 315 256.898438 L 105 256.898438 Z M 105 169.023438 " clip-rule="nonzero"/></clipPath></defs><g clip-path="url(#id1)"><path fill="#c30f2e" d="M 237.433594 75.378906 L 347.570312 267.527344 L 127.296875 267.527344 L 237.433594 75.378906 " fill-opacity="1" fill-rule="nonzero"/></g><g clip-path="url(#id2)"><path fill="#dd0330" d="M 169.601562 104 L 263.332031 268.03125 L 75.871094 268.03125 L 169.601562 104 " fill-opacity="1" fill-rule="nonzero"/></g><path fill="#ffffff" d="M 328.894531 218.96875 L 95.152344 218.96875 L 95.152344 216.402344 L 328.894531 216.402344 L 328.894531 218.96875 " fill-opacity="1" fill-rule="nonzero"/><g clip-path="url(#id3)"><path fill="#ffffff" d="M 292.785156 256.511719 C 291.871094 256.511719 291.011719 256.132812 290.292969 255.414062 C 286 251.101562 285.8125 233.566406 286.019531 207.304688 C 286.136719 192.953125 286.292969 173.296875 284.003906 171.746094 C 281.769531 172.671875 281.546875 188.910156 281.402344 199.660156 C 281.230469 212.167969 281.054688 225.109375 279.023438 231.699219 C 278.417969 233.652344 277.636719 235.441406 276.066406 235.296875 C 273.851562 235.101562 273.136719 231.605469 271.484375 217.808594 C 270.796875 212.078125 270.085938 206.15625 269.253906 203.863281 C 269.144531 203.574219 269.050781 203.34375 268.96875 203.164062 C 268.082031 205.167969 267.058594 210.675781 266.347656 214.5 C 265.363281 219.78125 264.433594 224.769531 263.269531 226.945312 C 262.371094 228.617188 260.945312 230.796875 258.953125 230.375 C 256.238281 229.804688 255.425781 224.332031 255.183594 221.121094 C 255.183594 194.105469 251.648438 190.960938 250.941406 190.605469 L 250.828125 190.691406 L 250.65625 190.652344 C 248.132812 191.753906 247.996094 200.515625 247.867188 208.988281 C 247.765625 215.203125 247.65625 222.246094 246.75 228.835938 C 245.574219 237.378906 244.152344 239.027344 242.382812 238.925781 C 238.308594 238.648438 238.191406 224.617188 238.191406 223.019531 C 238.191406 222.519531 238.203125 221.929688 238.21875 221.277344 C 238.296875 218.011719 238.4375 211.9375 236.429688 210.023438 C 236.164062 209.769531 235.789062 209.476562 235.496094 209.558594 C 234.066406 209.917969 232.582031 214.5625 232.089844 216.089844 C 231.933594 216.574219 231.808594 216.972656 231.703125 217.246094 C 231.621094 217.472656 231.515625 217.792969 231.390625 218.179688 C 230.308594 221.464844 229.078125 224.742188 226.976562 225.550781 C 226.199219 225.851562 225.386719 225.785156 224.625 225.355469 C 223.613281 224.78125 222.789062 223.609375 222.019531 221.660156 C 221.597656 220.582031 221.238281 219.488281 220.871094 218.390625 C 220.425781 217.050781 219.96875 215.664062 219.402344 214.347656 C 218.957031 213.324219 217.847656 212.863281 216.433594 213.113281 C 213.496094 213.636719 213.003906 216.605469 212.589844 221.074219 C 212.515625 221.851562 212.445312 222.613281 212.347656 223.332031 C 212.335938 223.542969 211.816406 230.101562 211.484375 232.1875 C 210.566406 237.90625 209.359375 240.160156 207.355469 239.996094 C 202.410156 239.574219 200.140625 217.882812 200.261719 208.71875 C 200.355469 201.722656 199.089844 199.167969 198.332031 198.761719 C 198.253906 198.726562 198.132812 198.660156 197.84375 198.863281 C 196.949219 199.46875 196.152344 201.355469 196.398438 203.335938 C 199.121094 224.902344 197.113281 249.601562 192.195312 255.164062 C 190.644531 256.914062 188.535156 256.890625 187.066406 255.414062 C 182.769531 251.101562 182.589844 233.566406 182.792969 207.304688 C 182.910156 192.953125 183.0625 173.296875 180.777344 171.746094 C 178.542969 172.671875 178.324219 188.910156 178.175781 199.660156 C 178.003906 212.167969 177.828125 225.109375 175.792969 231.699219 C 175.1875 233.652344 174.40625 235.441406 172.839844 235.296875 C 170.621094 235.101562 169.910156 231.605469 168.253906 217.808594 C 167.566406 212.078125 166.855469 206.15625 166.023438 203.863281 C 165.917969 203.574219 165.824219 203.34375 165.738281 203.164062 C 164.855469 205.167969 163.832031 210.675781 163.121094 214.5 C 162.136719 219.78125 161.207031 224.769531 160.039062 226.945312 C 159.140625 228.617188 157.714844 230.796875 155.726562 230.375 C 153.011719 229.804688 152.199219 224.332031 151.957031 221.121094 C 151.953125 194.105469 148.421875 190.960938 147.714844 190.605469 L 147.601562 190.691406 L 147.425781 190.652344 C 144.90625 191.753906 144.769531 200.515625 144.636719 208.988281 C 144.539062 215.203125 144.429688 222.246094 143.523438 228.835938 C 142.347656 237.378906 140.9375 239.042969 139.160156 238.925781 C 135.078125 238.648438 134.960938 224.617188 134.960938 223.019531 C 134.960938 222.519531 134.976562 221.929688 134.992188 221.277344 C 135.070312 218.011719 135.210938 211.9375 133.203125 210.023438 C 132.9375 209.769531 132.5625 209.476562 132.269531 209.558594 C 130.839844 209.917969 129.351562 214.5625 128.867188 216.089844 C 128.710938 216.570312 128.578125 216.972656 128.480469 217.246094 C 128.394531 217.46875 128.289062 217.789062 128.164062 218.175781 C 127.082031 221.460938 125.851562 224.742188 123.753906 225.550781 C 122.972656 225.851562 122.15625 225.785156 121.398438 225.355469 C 120.386719 224.78125 119.558594 223.609375 118.792969 221.660156 C 118.371094 220.582031 118.007812 219.488281 117.644531 218.390625 C 117.199219 217.050781 116.738281 215.664062 116.171875 214.347656 C 115.730469 213.324219 114.617188 212.863281 113.203125 213.113281 C 109.820312 213.714844 109.019531 217.910156 108.375 222.917969 L 108.261719 223.808594 L 105.703125 223.46875 L 105.824219 222.59375 C 106.382812 218.203125 107.234375 211.566406 112.753906 210.589844 C 115.351562 210.128906 117.621094 211.207031 118.535156 213.332031 C 119.148438 214.753906 119.628906 216.191406 120.089844 217.585938 C 120.433594 218.636719 120.785156 219.6875 121.191406 220.726562 C 121.90625 222.539062 122.460938 223.007812 122.667969 223.121094 C 123.960938 222.71875 125.28125 218.699219 125.71875 217.375 C 125.855469 216.949219 125.972656 216.597656 126.066406 216.347656 C 126.15625 216.101562 126.273438 215.742188 126.414062 215.308594 C 127.578125 211.667969 129.039062 207.726562 131.632812 207.070312 C 132.425781 206.867188 133.652344 206.894531 134.984375 208.167969 C 137.8125 210.867188 137.664062 217.167969 137.566406 221.339844 C 137.550781 221.964844 137.535156 222.535156 137.535156 223.019531 C 137.535156 229.675781 138.523438 234.328125 139.277344 235.925781 C 139.667969 235.109375 140.335938 233.132812 140.972656 228.488281 C 141.855469 222.050781 141.96875 215.089844 142.0625 208.949219 C 142.234375 198.082031 142.355469 190.203125 146.289062 188.351562 C 146.875 187.992188 147.847656 187.796875 148.875 188.316406 C 152.679688 190.230469 154.527344 200.929688 154.527344 221.023438 C 154.765625 224.128906 155.601562 227.398438 156.289062 227.867188 C 156.292969 227.796875 156.851562 227.453125 157.769531 225.734375 C 158.75 223.910156 159.726562 218.660156 160.585938 214.03125 C 162.488281 203.828125 163.351562 200.246094 165.601562 200.058594 C 167.316406 199.890625 168.109375 202.070312 168.441406 202.988281 C 169.378906 205.558594 170.074219 211.359375 170.808594 217.503906 C 171.382812 222.269531 172.199219 229.074219 173.03125 231.828125 C 173.121094 231.585938 173.222656 231.296875 173.332031 230.941406 C 175.257812 224.703125 175.433594 211.957031 175.601562 199.625 C 175.835938 182.496094 176.136719 171.882812 179.261719 169.667969 C 179.957031 169.175781 180.804688 169.054688 181.632812 169.332031 C 185.292969 170.546875 185.574219 181.277344 185.367188 207.328125 C 185.21875 226.21875 185.035156 249.730469 188.894531 253.605469 C 189.230469 253.945312 189.46875 253.945312 189.554688 253.945312 C 189.734375 253.945312 189.992188 253.773438 190.265625 253.464844 C 194.171875 249.046875 196.644531 225.847656 193.84375 203.660156 C 193.496094 200.898438 194.5625 197.996094 196.382812 196.746094 C 197.386719 196.054688 198.542969 195.964844 199.542969 196.5 C 201.820312 197.710938 202.925781 201.832031 202.835938 208.753906 C 202.675781 220.839844 205.578125 234.984375 207.472656 237.242188 C 207.773438 236.742188 208.367188 235.371094 208.9375 231.78125 C 209.257812 229.796875 209.785156 223.128906 209.792969 223.0625 C 209.886719 222.308594 209.957031 221.578125 210.023438 220.835938 C 210.414062 216.671875 210.894531 211.492188 215.980469 210.589844 C 218.574219 210.128906 220.84375 211.203125 221.761719 213.332031 C 222.375 214.753906 222.851562 216.191406 223.3125 217.585938 C 223.664062 218.636719 224.015625 219.6875 224.421875 220.726562 C 225.132812 222.539062 225.691406 223.007812 225.894531 223.121094 C 227.1875 222.71875 228.511719 218.699219 228.945312 217.378906 C 229.085938 216.953125 229.203125 216.597656 229.292969 216.347656 C 229.386719 216.105469 229.5 215.742188 229.636719 215.308594 C 230.804688 211.667969 232.265625 207.726562 234.863281 207.070312 C 235.648438 206.867188 236.878906 206.894531 238.210938 208.167969 C 241.039062 210.867188 240.890625 217.167969 240.796875 221.339844 C 240.777344 221.964844 240.761719 222.535156 240.761719 223.019531 C 240.761719 229.675781 241.75 234.328125 242.503906 235.925781 C 242.890625 235.109375 243.558594 233.132812 244.203125 228.488281 C 245.085938 222.050781 245.191406 215.089844 245.292969 208.949219 C 245.460938 198.082031 245.582031 190.203125 249.515625 188.351562 C 250.101562 187.992188 251.074219 187.796875 252.105469 188.316406 C 255.90625 190.230469 257.757812 200.929688 257.757812 221.023438 C 257.996094 224.128906 258.832031 227.398438 259.515625 227.867188 C 259.523438 227.796875 260.074219 227.453125 261 225.734375 C 261.980469 223.910156 262.953125 218.660156 263.816406 214.03125 C 265.710938 203.828125 266.578125 200.246094 268.828125 200.058594 C 270.546875 199.890625 271.339844 202.070312 271.671875 202.988281 C 272.605469 205.558594 273.300781 211.359375 274.042969 217.503906 C 274.609375 222.269531 275.425781 229.074219 276.261719 231.828125 C 276.347656 231.585938 276.449219 231.296875 276.558594 230.941406 C 278.484375 224.703125 278.65625 211.957031 278.828125 199.625 C 279.058594 182.496094 279.363281 171.882812 282.488281 169.667969 C 283.1875 169.175781 284.03125 169.054688 284.859375 169.332031 C 288.523438 170.546875 288.804688 181.277344 288.59375 207.328125 C 288.445312 226.21875 288.261719 249.730469 292.117188 253.605469 C 292.460938 253.945312 292.695312 253.945312 292.785156 253.945312 C 292.960938 253.945312 293.21875 253.773438 293.488281 253.464844 C 297.402344 249.046875 299.871094 225.847656 297.070312 203.660156 C 296.707031 200.769531 297.527344 197.855469 299.023438 196.734375 C 299.777344 196.164062 300.695312 196.046875 301.539062 196.402344 C 303.71875 197.332031 305.195312 201.316406 306.054688 208.589844 C 306.414062 211.636719 306.734375 214.929688 307.042969 218.179688 C 307.722656 225.273438 308.644531 234.832031 309.890625 236.933594 C 310.273438 236.445312 311.054688 235.125 312.214844 231.585938 L 314.664062 232.386719 C 312.863281 237.859375 311.453125 239.921875 309.617188 239.710938 C 306.761719 239.394531 305.9375 233.625 304.480469 218.425781 C 304.171875 215.191406 303.855469 211.917969 303.496094 208.886719 C 302.402344 199.609375 300.542969 198.769531 300.523438 198.761719 C 300.160156 198.945312 299.316406 200.875 299.628906 203.335938 C 302.34375 224.902344 300.34375 249.605469 295.421875 255.164062 C 294.628906 256.058594 293.738281 256.511719 292.785156 256.511719 " fill-opacity="1" fill-rule="nonzero"/></g></svg>

<?xml version="1.0" encoding="UTF-8" standalone="no"?>
<svg width="362.26562" zoomAndPan="magnify" viewBox="0 0 271.62214 192.65233" height="256.86978"
  preserveAspectRatio="xMidYMid meet" version="1.0" id="svg27" xmlns="http://www.w3.org/2000/svg"
  xmlns:svg="http://www.w3.org/2000/svg">
  <defs id="defs11">
    <clipPath id="id1">
      <path d="M 127.29688,75.375 H 347.57031 V 267.52734 H 127.29688 Z m 0,0" clip-rule="nonzero" id="path2" />
    </clipPath>
    <clipPath id="id2">
      <path d="M 75.871094,104 H 263.33594 V 268.03125 H 75.871094 Z m 0,0" clip-rule="nonzero" id="path5" />
    </clipPath>
    <clipPath id="id3">
      <path d="m 105,169.02344 h 210 v 87.875 H 105 Z m 0,0" clip-rule="nonzero" id="path8" />
    </clipPath>
  </defs>
  <g clip-path="url(#id1)" id="g15" transform="translate(-75.931091,-75.378906)">
    <path fill="#c30f2e" d="M 237.43359,75.378906 347.57031,267.52734 H 127.29688 L 237.43359,75.378906"
      fill-opacity="1" fill-rule="nonzero" id="path13" />
  </g>
  <g clip-path="url(#id2)" id="g19" transform="translate(-75.931091,-75.378906)">
    <path fill="#dd0330" d="m 169.60156,104 93.73047,164.03125 H 75.871094 L 169.60156,104" fill-opacity="1"
      fill-rule="nonzero" id="path17" />
  </g>
  <path fill="#ffffff" d="M 252.96344,143.58984 H 19.221253 v -2.56641 H 252.96344 v 2.56641" fill-opacity="1"
    fill-rule="nonzero" id="path21" />
  <g clip-path="url(#id3)" id="g25" transform="translate(-75.931091,-75.378906)">
    <path fill="#ffffff"
      d="m 292.78516,256.51172 c -0.91407,0 -1.77344,-0.37891 -2.49219,-1.09766 -4.29297,-4.3125 -4.48047,-21.84765 -4.27344,-48.10937 0.11719,-14.35157 0.27344,-34.00782 -2.01562,-35.5586 -2.23438,0.92578 -2.45704,17.16407 -2.60157,27.91407 -0.17187,12.50781 -0.34765,25.44921 -2.3789,32.03906 -0.60547,1.95312 -1.38672,3.74219 -2.95703,3.59765 -2.21485,-0.19531 -2.92969,-3.6914 -4.58204,-17.48828 -0.6875,-5.73047 -1.39843,-11.65234 -2.23046,-13.94531 -0.10938,-0.28906 -0.20313,-0.51953 -0.28516,-0.69922 -0.88672,2.00391 -1.91016,7.51172 -2.62109,11.33594 -0.98438,5.28125 -1.91407,10.26953 -3.07813,12.44531 -0.89844,1.67188 -2.32422,3.85156 -4.31641,3.42969 -2.71484,-0.57031 -3.52734,-6.04297 -3.76953,-9.25391 0,-27.01562 -3.53515,-30.16015 -4.24218,-30.51562 l -0.11329,0.0859 -0.17187,-0.0391 c -2.52344,1.10157 -2.66016,9.86328 -2.78906,18.33594 -0.10157,6.21484 -0.21094,13.25781 -1.11719,19.84766 -1.17578,8.54297 -2.59766,10.1914 -4.36719,10.08984 -4.07422,-0.27734 -4.1914,-14.30859 -4.1914,-15.90625 0,-0.5 0.0117,-1.08984 0.0273,-1.74219 0.0781,-3.26562 0.21875,-9.33984 -1.78906,-11.2539 -0.26563,-0.25391 -0.64063,-0.54688 -0.9336,-0.46485 -1.42968,0.35938 -2.91406,5.00391 -3.40625,6.53125 -0.15625,0.48438 -0.28125,0.88282 -0.38672,1.15625 -0.082,0.22657 -0.1875,0.54688 -0.3125,0.9336 -1.08203,3.28515 -2.3125,6.5625 -4.41406,7.37109 -0.77734,0.30078 -1.58984,0.23438 -2.35156,-0.19531 -1.01172,-0.57422 -1.83594,-1.7461 -2.60547,-3.69531 -0.42187,-1.07813 -0.78125,-2.17188 -1.14844,-3.26954 -0.44531,-1.33984 -0.90234,-2.72656 -1.46875,-4.04296 -0.44531,-1.02344 -1.55468,-1.48438 -2.96875,-1.23438 -2.9375,0.52344 -3.42968,3.49219 -3.84375,7.96094 -0.0742,0.77734 -0.14453,1.53906 -0.24218,2.25781 -0.0117,0.21094 -0.53125,6.76953 -0.86329,8.85547 -0.91796,5.71875 -2.125,7.97266 -4.1289,7.80859 -4.94531,-0.42187 -7.21485,-22.11328 -7.09375,-31.27734 0.0937,-6.99609 -1.17188,-9.55078 -1.92969,-9.95703 -0.0781,-0.0352 -0.19922,-0.10156 -0.48828,0.10156 -0.89453,0.60547 -1.69141,2.49219 -1.44531,4.47266 2.72265,21.5664 0.71484,46.26562 -4.20313,51.82812 -1.55078,1.75 -3.66015,1.72656 -5.1289,0.25 -4.29688,-4.3125 -4.47657,-21.84765 -4.27344,-48.10937 0.11719,-14.35157 0.26953,-34.00782 -2.01563,-35.5586 -2.23437,0.92578 -2.45312,17.16407 -2.60156,27.91407 -0.17187,12.50781 -0.34766,25.44921 -2.38281,32.03906 -0.60547,1.95312 -1.38672,3.74219 -2.95313,3.59765 -2.21875,-0.19531 -2.92968,-3.6914 -4.58593,-17.48828 -0.6875,-5.73047 -1.39844,-11.65234 -2.23047,-13.94531 -0.10547,-0.28906 -0.19922,-0.51953 -0.28516,-0.69922 -0.88281,2.00391 -1.90625,7.51172 -2.61719,11.33594 -0.98437,5.28125 -1.91406,10.26953 -3.08203,12.44531 -0.89844,1.67188 -2.32422,3.85156 -4.3125,3.42969 -2.71484,-0.57031 -3.52734,-6.04297 -3.76953,-9.25391 -0.004,-27.01562 -3.53516,-30.16015 -4.24219,-30.51562 l -0.11328,0.0859 -0.17578,-0.0391 c -2.51953,1.10157 -2.65625,9.86328 -2.78906,18.33594 -0.0977,6.21484 -0.20703,13.25781 -1.11328,19.84766 -1.17578,8.54297 -2.58594,10.20703 -4.36328,10.08984 -4.08204,-0.27734 -4.19922,-14.30859 -4.19922,-15.90625 0,-0.5 0.0156,-1.08984 0.0312,-1.74219 0.0781,-3.26562 0.21875,-9.33984 -1.78907,-11.2539 -0.26562,-0.25391 -0.64062,-0.54688 -0.93359,-0.46485 -1.42969,0.35938 -2.91797,5.00391 -3.40234,6.53125 -0.15625,0.48047 -0.28907,0.88282 -0.38672,1.15625 -0.0859,0.22266 -0.19141,0.54297 -0.31641,0.92969 -1.08203,3.28516 -2.3125,6.56641 -4.41015,7.375 -0.78125,0.30078 -1.59766,0.23438 -2.35547,-0.19531 -1.01172,-0.57422 -1.83985,-1.7461 -2.60547,-3.69531 -0.42188,-1.07813 -0.78516,-2.17188 -1.14844,-3.26954 -0.44531,-1.33984 -0.90625,-2.72656 -1.47265,-4.04296 -0.44141,-1.02344 -1.55469,-1.48438 -2.96875,-1.23438 -3.38282,0.60156 -4.1836,4.79688 -4.82813,9.80469 l -0.11328,0.89062 -2.55859,-0.33984 0.12109,-0.875 c 0.55859,-4.39063 1.41016,-11.02734 6.92969,-12.00391 2.59765,-0.46093 4.86718,0.61719 5.78125,2.74219 0.61328,1.42188 1.09375,2.85938 1.55468,4.25391 0.34375,1.05078 0.69532,2.10156 1.10157,3.14062 0.71484,1.8125 1.26953,2.28125 1.47656,2.39453 1.29297,-0.40234 2.61328,-4.42187 3.05078,-5.74609 0.13672,-0.42578 0.25391,-0.77734 0.34766,-1.02734 0.0898,-0.2461 0.20703,-0.60547 0.34765,-1.03907 1.16407,-3.64062 2.625,-7.58203 5.21875,-8.23828 0.79297,-0.20312 2.01953,-0.17578 3.35156,1.09766 2.82813,2.69922 2.67969,9 2.58204,13.17187 -0.0156,0.625 -0.0312,1.19532 -0.0312,1.67969 0,6.65625 0.98828,11.30859 1.74218,12.90625 0.39063,-0.81641 1.0586,-2.79297 1.69532,-7.4375 0.88281,-6.4375 0.99609,-13.39844 1.08984,-19.53906 0.17187,-10.86719 0.29297,-18.7461 4.22656,-20.59766 0.58594,-0.35937 1.5586,-0.55469 2.58594,-0.0352 3.80469,1.91406 5.65234,12.61328 5.65234,32.70703 0.23828,3.10547 1.07422,6.375 1.76172,6.84375 0.004,-0.0703 0.5625,-0.41407 1.48047,-2.13282 0.98047,-1.82421 1.95703,-7.07421 2.81641,-11.70312 1.90234,-10.20313 2.76562,-13.78516 5.01562,-13.97266 1.71485,-0.16797 2.50781,2.01172 2.83985,2.92969 0.9375,2.57031 1.63281,8.37109 2.36718,14.51563 0.57422,4.76562 1.39063,11.57031 2.22266,14.32421 0.0898,-0.24218 0.19141,-0.53125 0.30078,-0.88671 1.92578,-6.23829 2.10156,-18.98438 2.26953,-31.31641 0.23438,-17.12891 0.53516,-27.74219 3.66016,-29.95703 0.69531,-0.49219 1.54297,-0.61328 2.37109,-0.33594 3.66016,1.21484 3.94141,11.94531 3.73438,37.99609 -0.14844,18.89063 -0.33203,42.40235 3.52734,46.27735 0.33594,0.33984 0.57422,0.33984 0.66016,0.33984 0.17968,0 0.4375,-0.17187 0.71093,-0.48047 3.90625,-4.41797 6.37891,-27.61718 3.57813,-49.80468 -0.34766,-2.76172 0.71875,-5.66407 2.53906,-6.91407 1.00391,-0.6914 2.16016,-0.78125 3.16016,-0.24609 2.27734,1.21094 3.38281,5.33203 3.29297,12.25391 -0.16016,12.08593 2.74218,26.23046 4.63672,28.48828 0.30078,-0.5 0.89453,-1.8711 1.46484,-5.46094 0.32031,-1.98438 0.84766,-8.65234 0.85547,-8.71875 0.0937,-0.75391 0.16406,-1.48438 0.23047,-2.22656 0.39062,-4.16407 0.87109,-9.34375 5.95703,-10.2461 2.59375,-0.46093 4.86328,0.61328 5.78125,2.74219 0.61328,1.42188 1.08984,2.85938 1.55078,4.25391 0.35156,1.05078 0.70312,2.10156 1.10937,3.14062 0.71094,1.8125 1.26954,2.28125 1.47266,2.39453 1.29297,-0.40234 2.61719,-4.42187 3.05078,-5.74218 0.14063,-0.42579 0.25781,-0.78125 0.34766,-1.03125 0.0937,-0.24219 0.20703,-0.60547 0.34375,-1.03907 1.16797,-3.64062 2.6289,-7.58203 5.22656,-8.23828 0.78516,-0.20312 2.01563,-0.17578 3.34766,1.09766 2.82812,2.69922 2.67968,9 2.58593,13.17187 -0.0195,0.625 -0.0352,1.19532 -0.0352,1.67969 0,6.65625 0.98828,11.30859 1.74219,12.90625 0.38671,-0.81641 1.05468,-2.79297 1.69921,-7.4375 0.88282,-6.4375 0.98829,-13.39844 1.08985,-19.53906 0.16797,-10.86719 0.28906,-18.7461 4.22265,-20.59766 0.58594,-0.35937 1.5586,-0.55469 2.58985,-0.0352 3.80078,1.91406 5.65234,12.61328 5.65234,32.70703 0.23828,3.10547 1.07422,6.375 1.75781,6.84375 0.008,-0.0703 0.5586,-0.41407 1.48438,-2.13282 0.98047,-1.82421 1.95312,-7.07421 2.81641,-11.70312 1.89453,-10.20313 2.76171,-13.78516 5.01171,-13.97266 1.71875,-0.16797 2.51172,2.01172 2.84375,2.92969 0.9336,2.57031 1.62891,8.37109 2.3711,14.51563 0.5664,4.76562 1.38281,11.57031 2.21875,14.32421 0.0859,-0.24218 0.1875,-0.53125 0.29687,-0.88671 1.92578,-6.23829 2.09766,-18.98438 2.26953,-31.31641 0.23047,-17.12891 0.53516,-27.74219 3.66016,-29.95703 0.69922,-0.49219 1.54297,-0.61328 2.37109,-0.33594 3.66407,1.21484 3.94532,11.94531 3.73438,37.99609 -0.14844,18.89063 -0.33203,42.40235 3.52344,46.27735 0.34375,0.33984 0.57812,0.33984 0.66797,0.33984 0.17578,0 0.43359,-0.17187 0.70312,-0.48047 3.91406,-4.41797 6.38281,-27.61718 3.58203,-49.80468 -0.36328,-2.89063 0.45703,-5.80469 1.95313,-6.92579 0.7539,-0.57031 1.67187,-0.6875 2.51562,-0.33203 2.17969,0.92969 3.65625,4.91407 4.51563,12.1875 0.35937,3.04688 0.67968,6.33985 0.98828,9.58985 0.67969,7.09375 1.60156,16.65234 2.84765,18.7539 0.38282,-0.48828 1.16407,-1.80859 2.32422,-5.34765 l 2.44922,0.80078 c -1.80078,5.47265 -3.21094,7.53515 -5.04687,7.32422 -2.85547,-0.31641 -3.67969,-6.08594 -5.13672,-21.28516 -0.3086,-3.23437 -0.625,-6.50781 -0.98438,-9.53906 -1.09375,-9.27735 -2.95312,-10.11719 -2.97265,-10.125 -0.36328,0.18359 -1.20703,2.11328 -0.89453,4.57422 2.71484,21.5664 0.71484,46.26953 -4.20704,51.82812 -0.79296,0.89453 -1.68359,1.34766 -2.63671,1.34766"
      fill-opacity="1" fill-rule="nonzero" id="path23" />
  </g>
</svg>
